img/meditations/lt.svg

<svg width="213" height="230" viewBox="0 0 213 230" fill="none" xmlns="http://www.w3.org/2000/svg">
<path d="M132.233 92.4071C135.923 91.5929 139.613 93.2213 142.893 91.1859C143.713 90.7788 143.713 89.5575 142.893 88.7434C140.023 86.708 135.513 87.5221 132.233 86.708C128.953 85.8938 125.674 85.4867 122.394 85.4867C114.604 85.8938 106.814 86.708 99.0248 86.708C91.2351 86.708 83.4454 86.3009 75.6558 86.3009C71.9659 86.3009 68.2761 86.3009 64.5863 86.708C60.8964 86.708 57.6166 86.3009 54.7467 88.7434C53.9267 89.5575 53.9267 91.1859 54.7467 92C57.6166 94.4425 60.8964 94.0354 64.5863 94.4425C68.2761 94.4425 71.9659 94.8496 75.6558 94.8496C83.0355 95.2566 90.4151 95.6637 97.7948 95.6637C98.2048 99.7345 96.9748 104.619 96.9748 108.69C96.9748 112.354 96.9748 118.053 93.695 120.496C90.4151 122.938 85.9053 124.159 81.8055 124.566C80.1656 124.973 78.1157 124.973 76.4757 124.973C74.8358 124.973 73.6059 124.159 71.9659 124.973C71.556 124.973 71.146 125.381 71.146 125.788C71.146 126.195 71.146 126.195 71.146 126.602C71.146 127.416 71.556 127.823 71.556 128.23C72.3759 131.08 73.1959 134.336 74.0159 137.186C75.2458 140.85 76.8857 144.513 78.9356 147.77C80.9855 151.027 83.0355 154.283 85.0854 157.947C86.7253 160.796 87.9552 165.274 90.4151 167.31C94.105 170.566 98.2048 165.274 95.7449 162.425C92.875 156.319 88.7752 150.619 85.4953 144.513C83.8554 141.664 82.2155 138.407 80.1656 135.558C79.3456 134.336 78.5257 132.708 77.2957 131.487C78.9356 131.894 80.5756 132.301 81.8055 132.301C87.9552 132.708 94.5149 130.673 99.0248 127.009C104.355 122.938 105.584 116.425 105.174 109.912C104.765 105.027 105.174 98.9204 103.125 94.0354C109.274 93.6283 115.424 93.2213 121.574 92.8142C125.674 94.0354 128.953 93.2213 132.233 92.4071Z" fill="white"/>
<path d="M95.7448 76.1239C96.9748 76.938 97.7947 77.3451 99.0247 78.1593C99.4347 78.1593 99.8447 78.5664 100.255 78.5664C101.075 78.5664 101.485 78.9734 102.305 78.9734C103.534 78.9734 104.764 78.5664 105.994 78.1593C107.224 77.7522 108.044 76.531 108.864 75.7168C109.684 74.4956 109.684 73.2743 109.684 72.4602C109.684 72.0531 109.684 71.646 109.684 71.2389C109.684 70.8318 109.684 70.4248 109.274 70.0177C109.274 69.6106 108.864 68.7964 108.454 68.3894C108.044 67.5752 107.224 66.761 106.814 66.354C106.404 65.9469 105.994 65.5398 105.584 65.5398C104.764 65.1327 104.354 65.1327 103.125 64.7256C102.715 64.7256 102.305 64.7256 101.895 64.7256C101.485 64.7256 101.075 64.7256 100.255 64.7256C99.4347 64.7256 98.6147 65.1327 98.2047 65.5398C97.7947 65.5398 97.7947 65.9469 97.3848 65.9469C96.9748 66.354 96.1548 66.761 95.7448 67.1681C94.9249 67.9823 94.1049 69.2035 93.6949 70.4248C93.6949 70.8318 93.2849 71.646 93.6949 72.0531C93.6949 72.4602 93.6949 73.2743 94.1049 73.6814C94.1049 74.0885 94.5149 75.3097 95.7448 76.1239Z" fill="white"/>
<path d="M210.95 157.54C209.31 156.726 207.26 156.319 206.03 154.69C204.8 153.062 204.8 149.805 204.8 148.177C203.98 141.664 203.57 134.743 200.7 128.637C199.06 124.973 196.191 120.496 192.501 118.053C194.141 116.832 196.191 116.018 197.831 114.389C201.93 110.726 203.98 105.434 204.8 100.142C205.21 95.6637 204.8 91.1858 204.8 87.115C204.8 83.4513 205.62 78.5664 209.31 76.938C209.72 76.938 209.72 76.531 210.13 76.531C212.59 74.9026 212.18 70.4248 208.49 70.4248C206.03 70.4248 203.98 70.8318 201.93 70.0177C199.88 69.2035 198.24 67.5752 196.601 65.9469C192.911 62.2832 189.631 58.2124 185.121 56.177C180.201 53.7345 174.052 52.9203 168.722 54.1416C167.902 54.1416 167.082 54.5487 166.262 54.9557C167.902 47.2212 168.722 39.4867 164.622 32.1593C161.752 27.2743 157.652 23.6106 153.552 19.9469C149.863 16.2832 145.763 10.177 146.173 4.47787C146.173 2.03539 142.893 0.814156 141.253 2.44247C139.613 4.07079 137.973 6.51327 135.513 7.73451C133.463 8.95575 131.003 9.36283 128.544 9.36283C123.214 10.177 117.474 9.36283 112.144 10.9911C106.814 12.2124 102.305 15.469 99.4348 20.354C99.0248 21.5752 98.2049 22.7965 97.7949 24.0177C94.105 17.5044 87.5453 12.6195 80.9856 10.177C71.966 6.92035 58.8466 11.8053 53.5168 2.0354C51.8769 -1.22124 46.1371 -3.02494e-06 46.5471 4.07079C47.7771 15.0619 36.2976 21.9823 32.1977 31.3451C30.1478 36.2301 30.1478 41.9292 31.7877 46.8142C32.1977 48.4425 33.0177 50.0708 33.8377 51.6991C25.638 48.4425 17.0284 47.6283 8.82875 52.9203C1.44907 57.3982 -4.29068 67.5752 -14.1303 66.761C-18.2301 66.354 -18.6401 71.646 -16.1802 73.6814C-5.11065 81.0088 -9.62045 94.8495 -4.70066 105.434C-3.06074 109.097 -0.600843 112.354 1.85905 114.796C-2.24077 117.239 -5.11065 121.717 -7.16056 126.195C-8.80049 129.858 -9.62045 133.929 -10.0304 138C-10.4404 142.071 -10.4404 146.142 -11.2604 150.212C-11.6704 152.248 -12.0803 154.283 -13.3103 155.911C-14.1303 157.54 -15.7702 158.354 -16.5901 159.982C-17.0001 160.389 -16.5901 161.204 -16.1802 161.611C-15.7702 162.018 -14.9502 162.018 -14.5402 162.018V162.425C-13.3103 164.053 -10.4404 164.46 -8.3905 165.274C-6.34059 166.088 -4.29068 167.31 -2.65075 168.531C1.44907 171.381 4.72893 175.451 9.23873 177.894C13.7485 180.336 19.0783 181.15 24.4081 181.557C26.868 181.557 28.9179 181.15 31.3778 180.336C31.3778 180.336 31.7877 180.336 31.7877 179.929C30.5578 184.814 30.1478 190.106 30.5578 194.991C30.9678 201.097 34.2476 205.982 37.9375 210.46C42.0373 215.345 47.7771 220.23 47.7771 227.15C47.7771 232.035 55.1567 232.035 55.1567 227.15C55.1567 226.743 55.1567 225.929 55.1567 225.522C60.8965 221.451 69.9161 223.894 76.4758 223.08C82.2155 222.673 87.9553 219.416 92.0551 215.345C94.105 213.31 95.335 210.867 96.1549 208.018C98.6148 212.903 103.945 217.788 107.634 220.23C112.144 223.487 117.474 224.301 123.214 224.301C126.084 224.301 128.954 224.301 132.233 224.708C135.923 225.115 138.383 227.15 141.663 228.779C144.123 230.407 146.993 227.965 146.173 225.115C144.943 221.044 149.453 217.381 152.322 214.938C156.012 212.088 160.112 209.239 162.162 204.761C166.262 197.434 166.672 189.292 164.622 181.965C169.542 182.779 175.281 181.557 179.791 179.522C185.121 177.08 190.041 173.009 194.551 169.345C196.601 167.717 198.241 165.681 201.11 165.274C203.57 164.867 206.03 164.867 208.49 164.867C212.59 164.053 214.64 159.168 210.95 157.54ZM174.052 59.4336C178.971 59.8407 183.071 62.2832 186.351 65.9469C190.451 70.4248 194.961 75.7168 200.7 77.3451C198.24 82.6372 198.24 89.1504 198.24 94.4425C198.24 98.9203 197.831 103.805 194.551 107.062C190.861 111.133 185.941 111.947 181.021 113.575C180.611 96.0708 175.281 78.9734 163.802 65.1327C163.802 64.7257 163.802 64.7257 164.212 64.3186C164.622 63.5044 164.622 62.2832 165.032 61.469C167.082 60.2478 169.952 59.4336 174.052 59.4336ZM41.6273 29.7168C45.7271 24.0177 51.0569 18.3186 53.1068 11.8053C58.8466 15.0619 66.6362 15.0619 73.6059 15.469C83.0355 16.2832 92.4651 24.0177 93.6951 33.3805C85.0854 34.1947 76.4758 36.2301 68.6861 38.6726C59.6665 41.115 50.6469 46.4071 42.4473 53.3274C41.6273 52.1062 41.2173 50.8849 40.3974 50.0708C39.1674 48.0354 38.7574 45.5929 38.3475 43.5575C37.9375 37.8584 39.1674 33.7876 41.6273 29.7168ZM25.638 173.009C20.7182 173.009 15.3885 171.788 11.2886 169.345C7.18882 166.903 3.90896 163.239 -0.600843 161.611C-2.65075 160.796 -5.52063 159.575 -8.3905 159.575C-7.57054 158.761 -6.75058 157.54 -6.34059 156.726C-4.29068 153.062 -3.47072 148.991 -2.65075 144.92C-2.24077 142.885 -2.24077 140.85 -1.83079 138.814C-1.83079 138 -1.83079 137.186 -1.42081 136.372C-1.42081 135.965 -1.42081 135.558 -1.42081 135.558C-1.42081 135.558 -1.42081 135.15 -1.42081 134.743C-0.600843 131.08 1.03909 127.823 3.49898 124.973C4.31894 124.159 5.13891 123.345 5.95887 122.531C5.95887 122.531 6.36885 122.124 7.18882 121.717C7.18882 121.717 8.41876 121.31 8.00878 121.31C8.00878 121.31 9.64871 120.903 8.82875 120.903C9.23873 120.903 10.4687 120.903 9.64871 120.903C10.8787 121.31 11.6986 121.717 13.3386 122.124C13.7485 122.124 14.1585 122.124 14.5685 122.124C14.9785 124.159 14.9785 125.788 15.3885 126.602C17.8484 140.442 23.1781 153.469 31.3778 164.867C32.6077 166.903 34.2476 168.531 35.8876 170.566C32.1977 170.566 29.3279 173.009 25.638 173.009ZM73.6059 216.566C68.2762 216.973 60.4865 216.566 55.5667 219.823C54.3368 215.752 51.4669 211.681 48.187 208.425C44.4972 204.354 39.9874 200.283 38.7574 194.584C37.9375 190.92 37.9375 186.035 38.3475 181.557C38.3475 179.929 38.3475 177.487 39.5774 176.265C39.9874 175.858 40.3974 175.858 40.8074 175.451C46.9571 181.557 54.3368 187.257 62.1264 190.92C68.6861 193.77 75.2458 195.398 82.6255 196.619C86.3154 197.434 89.5952 197.841 93.2851 198.248C91.2352 202.726 91.6451 207.611 87.5453 210.867C83.4455 214.938 78.5257 216.159 73.6059 216.566ZM154.372 205.575C151.503 208.832 148.223 211.274 145.353 214.124C143.713 215.752 142.893 217.788 142.073 219.416C138.793 217.381 135.103 216.566 131.003 216.159C125.674 215.752 120.344 216.566 115.014 214.938C111.324 213.717 108.454 210.867 105.585 208.425C103.125 205.982 100.255 202.726 100.665 199.062C102.715 199.062 104.765 199.062 106.814 198.655C111.734 197.841 109.684 190.513 104.765 191.327C97.3849 192.549 90.0052 190.92 82.6255 189.699C76.4758 188.478 70.3261 187.257 64.5863 184.407C53.9268 179.115 45.3172 170.566 38.3475 160.796C30.9678 150.619 25.638 139.221 22.3582 127.009C21.5382 123.752 20.7182 120.903 20.3083 117.646C20.3083 117.239 20.3083 116.832 20.3083 116.832C20.3083 116.832 20.3083 116.832 20.3083 116.425C19.8983 114.389 19.8983 112.354 19.4883 110.726C19.4883 109.504 19.0783 107.469 19.0783 106.248C19.0783 105.434 18.6683 105.027 18.2583 105.027C14.1585 104.619 12.9286 108.69 12.5186 113.575C11.6986 113.168 10.8787 112.761 9.64871 112.761C8.41876 111.947 7.18882 110.726 5.95887 109.911C2.26903 106.248 0.21912 101.77 -0.190861 96.4779C-1.01083 87.9292 -1.83079 78.9734 -6.75058 72.4602C0.219122 69.6106 4.72892 65.1327 9.64871 61.0619C13.3386 57.8053 17.8484 55.7699 22.7681 55.7699C27.2779 55.7699 31.3778 57.3982 35.4776 59.8407C26.868 69.6106 20.7182 81.823 20.3083 94.0354C20.3083 97.6991 25.228 97.292 25.638 94.0354C28.9179 70.8318 50.2369 51.292 72.376 45.1858C84.2655 41.9292 98.2049 38.6726 110.504 41.9292C116.244 43.5575 121.984 44.7788 127.724 46.8142C129.773 47.6283 131.823 48.4425 133.873 48.8495C135.513 49.2566 139.203 49.2566 140.433 50.0708C141.253 50.4779 142.073 50.0708 141.663 48.8495C139.203 43.9646 135.923 42.7434 131.003 40.708C124.854 38.2655 118.704 35.823 112.554 34.1947C109.274 33.3805 105.585 32.5664 101.895 32.5664C102.305 30.531 102.305 28.9026 103.125 27.2743C103.945 24.4248 105.995 21.9823 108.044 19.9469C111.734 16.6903 117.064 16.6903 121.984 16.2832C128.544 15.8761 137.973 15.469 142.893 10.9911C142.893 12.2124 142.893 13.0265 142.893 13.8407C143.303 16.2832 144.533 18.7257 146.173 20.7611C149.043 24.8319 153.142 28.4956 156.422 32.9734C159.702 37.4513 160.522 41.9292 159.292 47.6283C158.472 51.292 157.242 54.9557 156.012 59.0265C153.142 58.6195 150.683 62.2832 152.732 65.1327C162.162 76.1239 170.362 89.1504 172.412 103.805C174.872 118.053 172.412 133.115 167.492 146.142C162.982 158.354 155.192 170.566 143.713 177.487C139.203 180.336 134.283 182.779 129.773 185.628C125.264 188.478 120.754 190.513 115.424 191.734C114.604 191.734 114.604 192.956 115.014 193.363C118.294 197.027 124.854 194.177 128.544 192.549C134.283 190.106 139.613 186.85 145.353 184C149.043 182.372 152.322 179.929 155.192 177.487C161.342 185.221 161.752 197.841 154.372 205.575ZM183.891 170.159C179.791 173.009 175.691 175.451 170.772 176.265C167.902 176.673 165.442 176.265 162.982 175.451C162.162 174.23 161.342 173.009 160.522 171.788C166.262 165.681 170.362 157.947 173.642 150.212C177.331 141.257 179.381 131.894 180.201 122.938C181.841 123.345 183.891 123.345 185.121 123.752C187.581 124.159 189.221 124.159 190.861 125.788C193.321 128.23 194.961 131.08 196.191 133.929C198.65 140.442 198.24 147.363 199.47 154.283C199.88 155.911 200.29 157.133 200.7 158.354C199.47 158.761 197.831 159.168 196.601 159.982C192.091 162.425 188.401 166.903 183.891 170.159Z" fill="white"/>
</svg>

<svg width="213" height="230" fill="none" xmlns="http://www.w3.org/2000/svg"><path d="M132.233 92.407c3.69-.814 7.38.814 10.66-1.221.82-.407.82-1.629 0-2.443-2.87-2.035-7.38-1.22-10.66-2.035a40.701 40.701 0 00-9.839-1.221c-7.79.407-15.58 1.221-23.37 1.221-7.789 0-15.579-.407-23.368-.407-3.69 0-7.38 0-11.07.407-3.69 0-6.97-.407-9.84 2.035-.82.815-.82 2.443 0 3.257 2.87 2.442 6.15 2.035 9.84 2.442 3.69 0 7.38.408 11.07.408 7.38.407 14.76.814 22.139.814.41 4.07-.82 8.955-.82 13.026 0 3.664 0 9.363-3.28 11.806-3.28 2.442-7.79 3.663-11.89 4.07-1.64.407-3.69.407-5.33.407-1.64 0-2.87-.814-4.51 0-.409 0-.819.408-.819.815v.814c0 .814.41 1.221.41 1.628.82 2.85 1.64 6.106 2.46 8.956 1.23 3.664 2.87 7.327 4.92 10.584 2.05 3.257 4.1 6.513 6.15 10.177 1.64 2.849 2.87 7.327 5.33 9.363 3.689 3.256 7.789-2.036 5.329-4.885-2.87-6.106-6.97-11.806-10.25-17.912-1.64-2.849-3.28-6.106-5.33-8.955-.82-1.222-1.64-2.85-2.87-4.071 1.64.407 3.28.814 4.51.814 6.15.407 12.71-1.628 17.22-5.292 5.33-4.071 6.559-10.584 6.149-17.097-.409-4.885 0-10.992-2.049-15.877l18.449-1.22c4.1 1.22 7.379.406 10.659-.408zM95.745 76.124c1.23.814 2.05 1.221 3.28 2.035.41 0 .82.407 1.23.407.82 0 1.23.407 2.05.407 1.229 0 2.459-.407 3.689-.814s2.05-1.628 2.87-2.442c.82-1.221.82-2.443.82-3.257v-1.22c0-.407 0-.814-.41-1.221 0-.407-.41-1.222-.82-1.629-.41-.814-1.23-1.628-1.64-2.035-.41-.407-.82-.814-1.23-.814-.82-.407-1.23-.407-2.459-.814h-2.87c-.82 0-1.64.407-2.05.814-.41 0-.41.407-.82.407-.41.407-1.23.814-1.64 1.221-.82.814-1.64 2.035-2.05 3.257 0 .407-.41 1.221 0 1.628 0 .407 0 1.221.41 1.628 0 .407.41 1.629 1.64 2.443z" fill="#fff"/><path d="M210.95 157.54c-1.64-.814-3.69-1.221-4.92-2.85-1.23-1.628-1.23-4.885-1.23-6.513-.82-6.513-1.23-13.434-4.1-19.54-1.64-3.664-4.509-8.141-8.199-10.584 1.64-1.221 3.69-2.035 5.33-3.664 4.099-3.663 6.149-8.955 6.969-14.247.41-4.478 0-8.956 0-13.027 0-3.664.82-8.549 4.51-10.177.41 0 .41-.407.82-.407 2.46-1.628 2.05-6.106-1.64-6.106-2.46 0-4.51.407-6.56-.407s-3.69-2.443-5.329-4.071c-3.69-3.664-6.97-7.735-11.48-9.77-4.92-2.443-11.069-3.257-16.399-2.035-.82 0-1.64.407-2.46.814 1.64-7.735 2.46-15.47-1.64-22.797-2.87-4.885-6.97-8.548-11.07-12.212-3.689-3.664-7.789-9.77-7.379-15.47 0-2.442-3.28-3.663-4.92-2.035-1.64 1.629-3.28 4.071-5.74 5.293-2.05 1.22-4.51 1.628-6.969 1.628-5.33.814-11.07 0-16.4 1.628-5.33 1.221-9.839 4.478-12.71 9.363-.41 1.221-1.23 2.443-1.64 3.664-3.689-6.514-10.249-11.399-16.808-13.841-9.02-3.257-22.14 1.628-27.47-8.142C51.877-1.22 46.138 0 46.548 4.071c1.23 10.99-10.25 17.911-14.35 27.274-2.05 4.885-2.05 10.584-.41 15.47.41 1.628 1.23 3.256 2.05 4.884-8.199-3.256-16.809-4.07-25.008 1.221-7.38 4.478-13.12 14.655-22.96 13.841-4.1-.407-4.51 4.885-2.05 6.92C-5.11 81.01-9.62 94.85-4.7 105.434c1.64 3.663 4.1 6.92 6.56 9.362-4.1 2.443-6.97 6.921-9.02 11.399-1.64 3.663-2.46 7.734-2.87 11.805-.41 4.071-.41 8.142-1.23 12.212-.41 2.036-.82 4.071-2.05 5.699-.82 1.629-2.46 2.443-3.28 4.071-.41.407 0 1.222.41 1.629.41.407 1.23.407 1.64.407v.407c1.23 1.628 4.1 2.035 6.15 2.849 2.05.814 4.1 2.036 5.74 3.257 4.1 2.85 7.38 6.92 11.89 9.363 4.51 2.442 9.84 3.256 15.17 3.663 2.459 0 4.509-.407 6.969-1.221 0 0 .41 0 .41-.407a46.88 46.88 0 00-1.23 15.062c.41 6.106 3.69 10.991 7.38 15.469 4.1 4.885 9.84 9.77 9.84 16.69 0 4.885 7.379 4.885 7.379 0v-1.628c5.74-4.071 14.76-1.628 21.319-2.442 5.74-.407 11.48-3.664 15.58-7.735 2.049-2.035 3.279-4.478 4.099-7.327 2.46 4.885 7.79 9.77 11.479 12.212 4.51 3.257 9.84 4.071 15.58 4.071 2.87 0 5.74 0 9.019.407 3.69.407 6.15 2.442 9.43 4.071 2.46 1.628 5.33-.814 4.51-3.664-1.23-4.071 3.28-7.734 6.149-10.177 3.69-2.85 7.79-5.699 9.84-10.177 4.1-7.327 4.51-15.469 2.46-22.796 4.92.814 10.659-.408 15.169-2.443 5.33-2.442 10.25-6.513 14.76-10.177 2.05-1.628 3.69-3.664 6.559-4.071 2.46-.407 4.92-.407 7.38-.407 4.1-.814 6.15-5.699 2.46-7.327zm-36.898-98.106c4.919.407 9.019 2.85 12.299 6.513 4.1 4.478 8.61 9.77 14.349 11.398-2.46 5.292-2.46 11.805-2.46 17.097 0 4.478-.409 9.363-3.689 12.62-3.69 4.071-8.61 4.885-13.53 6.513-.41-17.504-5.74-34.602-17.219-48.442 0-.407 0-.407.41-.814.41-.815.41-2.036.82-2.85 2.05-1.221 4.92-2.035 9.02-2.035zM41.627 29.717c4.1-5.7 9.43-11.398 11.48-17.912 5.74 3.257 13.53 3.257 20.499 3.664 9.43.814 18.86 8.549 20.09 17.911-8.61.815-17.22 2.85-25.01 5.293-9.02 2.442-18.04 7.734-26.239 14.654-.82-1.22-1.23-2.442-2.05-3.256-1.23-2.036-1.64-4.478-2.05-6.514-.41-5.699.82-9.77 3.28-13.84zM25.638 173.009c-4.92 0-10.25-1.221-14.35-3.664-4.1-2.442-7.379-6.106-11.889-7.734-2.05-.815-4.92-2.036-7.79-2.036.82-.814 1.64-2.035 2.05-2.849 2.05-3.664 2.87-7.735 3.69-11.806.41-2.035.41-4.07.82-6.106 0-.814 0-1.628.41-2.442v-1.629c.82-3.663 2.46-6.92 4.92-9.77l2.46-2.442s.41-.407 1.23-.814c0 0 1.23-.407.82-.407 0 0 1.64-.407.82-.407h.82c1.23.407 2.05.814 3.69 1.221h1.23c.41 2.035.41 3.664.82 4.478 2.46 13.84 7.79 26.867 15.989 38.265 1.23 2.036 2.87 3.664 4.51 5.699-3.69 0-6.56 2.443-10.25 2.443zm47.968 43.557c-5.33.407-13.12 0-18.04 3.257-1.23-4.071-4.1-8.142-7.379-11.398-3.69-4.071-8.2-8.142-9.43-13.841-.82-3.664-.82-8.549-.41-13.027 0-1.628 0-4.07 1.23-5.292.41-.407.82-.407 1.23-.814 6.15 6.106 13.53 11.806 21.32 15.469 6.56 2.85 13.119 4.478 20.498 5.699 3.69.815 6.97 1.222 10.66 1.629-2.05 4.478-1.64 9.363-5.74 12.619-4.1 4.071-9.02 5.292-13.94 5.699zm80.766-10.991c-2.869 3.257-6.149 5.699-9.019 8.549-1.64 1.628-2.46 3.664-3.28 5.292-3.28-2.035-6.97-2.85-11.07-3.257-5.329-.407-10.659.407-15.989-1.221-3.69-1.221-6.56-4.071-9.429-6.513-2.46-2.443-5.33-5.699-4.92-9.363 2.05 0 4.1 0 6.149-.407 4.92-.814 2.87-8.142-2.049-7.328-7.38 1.222-14.76-.407-22.14-1.628-6.15-1.221-12.299-2.442-18.039-5.292-10.66-5.292-19.269-13.841-26.239-23.611-7.38-10.177-12.709-21.575-15.989-33.787-.82-3.257-1.64-6.106-2.05-9.363v-1.221c-.41-2.036-.41-4.071-.82-5.699 0-1.222-.41-3.257-.41-4.478 0-.814-.41-1.221-.82-1.221-4.1-.408-5.33 3.663-5.74 8.548-.82-.407-1.64-.814-2.87-.814-1.23-.814-2.46-2.035-3.69-2.85C2.27 106.248.22 101.77-.19 96.478c-.82-8.549-1.64-17.505-6.56-24.018 6.97-2.85 11.48-7.327 16.4-11.398 3.69-3.257 8.2-5.292 13.12-5.292 4.509 0 8.609 1.628 12.709 4.07-8.61 9.77-14.76 21.983-15.17 34.195 0 3.664 4.92 3.257 5.33 0 3.28-23.203 24.599-42.743 46.738-48.85 11.89-3.256 25.829-6.512 38.128-3.256 5.74 1.628 11.48 2.85 17.22 4.885 2.049.814 4.099 1.629 6.149 2.035 1.64.408 5.33.408 6.56 1.222.82.407 1.64 0 1.23-1.221-2.46-4.885-5.74-6.107-10.66-8.142-6.149-2.442-12.299-4.885-18.449-6.513-3.28-.815-6.969-1.629-10.659-1.629.41-2.035.41-3.663 1.23-5.292.82-2.85 2.87-5.292 4.919-7.327 3.69-3.257 9.02-3.257 13.94-3.664 6.56-.407 15.989-.814 20.909-5.292v2.85c.41 2.442 1.64 4.885 3.28 6.92 2.87 4.07 6.969 7.735 10.249 12.212 3.28 4.478 4.1 8.956 2.87 14.655-.82 3.664-2.05 7.328-3.28 11.398-2.87-.407-5.329 3.257-3.28 6.107 9.43 10.99 17.63 24.017 19.68 38.672 2.46 14.248 0 29.31-4.92 42.337-4.51 12.212-12.3 24.424-23.779 31.345-4.51 2.849-9.43 5.292-13.94 8.141-4.509 2.85-9.019 4.885-14.349 6.106-.82 0-.82 1.222-.41 1.629 3.28 3.664 9.84.814 13.53-.814 5.739-2.443 11.069-5.699 16.809-8.549 3.69-1.628 6.969-4.071 9.839-6.513 6.15 7.734 6.56 20.354-.82 28.088zm29.519-35.416c-4.1 2.85-8.2 5.292-13.119 6.106-2.87.408-5.33 0-7.79-.814l-2.46-3.663c5.74-6.107 9.84-13.841 13.12-21.576 3.689-8.955 5.739-18.318 6.559-27.274 1.64.407 3.69.407 4.92.814 2.46.407 4.1.407 5.74 2.036 2.46 2.442 4.1 5.292 5.33 8.141 2.459 6.513 2.049 13.434 3.279 20.354.41 1.628.82 2.85 1.23 4.071-1.23.407-2.869.814-4.099 1.628-4.51 2.443-8.2 6.921-12.71 10.177z" fill="#fff"/></svg>
